src/assets/icons/remotes/s3.svg

<svg width="24" height="24" viewBox="0 0 24 24" fill="currentColor" xmlns="http://www.w3.org/2000/svg">
    <path
        d="M7.63835 10.3434C7.61648 11.0497 7.96961 11.3653 7.97898 11.5622C7.97586 11.6028 7.96023 11.6403 7.93836 11.6747C7.91648 11.7091 7.88523 11.7372 7.85086 11.756L7.45085 12.0372C7.39772 12.0747 7.33835 12.0935 7.27585 12.0966C7.26335 12.0966 7.01959 12.1528 6.63521 11.2966C6.40083 11.5903 6.10395 11.8247 5.76332 11.9841C5.42268 12.1435 5.05393 12.2247 4.67892 12.2185C4.16953 12.2466 2.79138 11.931 2.86326 10.4622C2.81326 9.26528 3.9289 8.52151 5.07893 8.58714C5.30081 8.58714 5.75394 8.59964 6.54771 8.78402V8.29651C6.63208 7.46837 6.08832 6.82773 5.14768 6.92461C5.07268 6.92461 4.54142 6.90898 3.7164 7.24024C3.48515 7.34649 3.45702 7.32774 3.37889 7.32774C3.14764 7.32774 3.24139 6.65585 3.28827 6.57148C3.45077 6.37147 4.41016 5.99646 5.34768 6.00272C5.97582 5.94646 6.60083 6.14022 7.08834 6.54335C7.28522 6.76523 7.43835 7.02461 7.5321 7.30587C7.62585 7.58712 7.66335 7.884 7.64148 8.18088V10.3466L7.63835 10.3434ZM4.9383 11.3559C5.95082 11.3403 6.38208 10.7309 6.47895 10.4028C6.55708 10.0872 6.54458 9.89029 6.54458 9.54653C6.24145 9.47466 5.80707 9.39341 5.30706 9.39341C4.83205 9.35903 3.96953 9.56841 4.00391 10.4028C3.9664 10.9278 4.35079 11.3841 4.94142 11.3559H4.9383ZM10.279 12.0778C10.0321 12.0997 9.91965 11.9247 9.88215 11.7528L8.32587 6.60585C8.29462 6.51835 8.27587 6.43085 8.26649 6.3371C8.26024 6.2996 8.26962 6.26209 8.29149 6.23084C8.31337 6.19959 8.34774 6.18084 8.38524 6.17459C8.39149 6.17459 8.31962 6.17459 9.07901 6.17459C9.35401 6.14647 9.44151 6.3621 9.47276 6.4996L10.5915 10.8997L11.6291 6.4996C11.6447 6.3996 11.7197 6.15272 12.0291 6.18084H12.5666C12.6353 6.17459 12.9135 6.16522 12.9635 6.50585L14.0041 10.9591L15.1573 6.50273C15.1729 6.43397 15.2416 6.14647 15.5541 6.17772H16.1698C16.1979 6.17459 16.3635 6.15272 16.3354 6.44647C16.3229 6.50272 16.4417 6.11209 14.6854 11.756C14.651 11.9278 14.5354 12.1028 14.2885 12.081H13.7041C13.3635 12.1185 13.3135 11.7778 13.3072 11.7466L12.2697 7.46212L11.2447 11.7435C11.2384 11.7778 11.1915 12.1153 10.8478 12.0778H10.2759H10.279ZM18.8261 12.2528C18.6417 12.2528 17.7667 12.2435 17.0323 11.8685C16.9604 11.8372 16.8979 11.7872 16.8542 11.7185C16.8104 11.6497 16.7885 11.5747 16.7885 11.4966V11.1622C16.7885 10.8966 16.9823 10.9466 17.0635 10.9778C17.376 11.1059 17.5792 11.1997 17.9636 11.2778C19.1105 11.5122 19.6136 11.2059 19.7355 11.1372C20.148 10.8934 20.1792 10.3341 19.9011 10.0465C19.573 9.77154 19.4167 9.76216 18.2417 9.39028C18.0979 9.34966 16.876 8.96527 16.8729 7.75275C16.8542 6.87148 17.6542 5.99646 19.0448 6.00272C19.4417 6.00272 20.4949 6.13084 20.7824 6.49022C20.8261 6.55585 20.8449 6.63398 20.8417 6.70898V7.02461C20.8417 7.16211 20.7917 7.23399 20.6886 7.23399C20.448 7.20586 20.0198 6.88398 19.1511 6.89648C18.9354 6.88398 17.9042 6.92461 17.9511 7.67775C17.9386 8.27151 18.7823 8.49339 18.8792 8.51839C20.0198 8.86215 20.398 8.9184 20.8511 9.44341C21.3855 10.1372 21.098 10.9528 20.9855 11.1747C20.3886 12.3466 18.8479 12.2497 18.8198 12.2497L18.8261 12.2528ZM20.0823 15.531C17.8948 17.1467 14.7166 18.0061 12.0041 18.0061C8.34462 18.0311 4.80705 16.6842 2.08824 14.2341C1.88511 14.0497 2.06324 13.7966 2.31325 13.9372C5.32893 15.6623 8.7415 16.5685 12.2166 16.5654C14.8104 16.5529 17.376 16.0248 19.7667 15.0185C20.1355 14.8623 20.448 15.2623 20.0823 15.531ZM20.9949 14.4904C20.7136 14.131 19.1417 14.3216 18.4386 14.406C18.2261 14.431 18.1917 14.2466 18.3823 14.1091C19.6355 13.2279 21.6918 13.481 21.9261 13.7779C22.1605 14.0747 21.8605 16.1342 20.6886 17.1186C20.5074 17.2717 20.3355 17.2904 20.4167 16.9904C20.6792 16.3248 21.273 14.8498 20.9917 14.4904H20.9949Z" />
</svg>

<svg xmlns="http://www.w3.org/2000/svg" width="24" height="24" fill="currentColor" viewBox="0 0 24 24"><path d="M7.638 10.343c-.022.707.332 1.022.341 1.22a.25.25 0 0 1-.04.112.24.24 0 0 1-.088.081l-.4.281a.33.33 0 0 1-.175.06c-.013 0-.256.056-.64-.8a2.46 2.46 0 0 1-1.956.922c-.51.028-1.889-.288-1.817-1.757-.05-1.197 1.066-1.94 2.216-1.875.222 0 .675.013 1.469.197v-.487c.084-.829-.46-1.47-1.4-1.372-.075 0-.607-.016-1.432.315-.23.106-.259.088-.337.088-.231 0-.138-.672-.09-.757.162-.2 1.121-.575 2.059-.568a2.4 2.4 0 0 1 1.74.54 2.2 2.2 0 0 1 .553 1.638v2.166zm-2.7 1.013c1.013-.016 1.444-.625 1.541-.953.078-.316.066-.513.066-.856a5.4 5.4 0 0 0-1.238-.154c-.475-.034-1.337.175-1.303 1.01-.038.525.347.981.937.953zm5.341.722c-.247.022-.36-.153-.397-.325L8.326 6.606a1 1 0 0 1-.06-.269.14.14 0 0 1 .119-.163h.694c.275-.028.363.188.394.326l1.118 4.4 1.038-4.4c.016-.1.09-.347.4-.32h.538c.068-.005.347-.015.396.326l1.041 4.453 1.153-4.456c.016-.069.085-.357.397-.325h.616c.028-.003.193-.025.165.268-.012.057.107-.334-1.65 5.31-.034.172-.15.347-.396.325h-.585c-.34.037-.39-.303-.397-.334L12.27 7.462l-1.025 4.281c-.007.035-.053.372-.397.335h-.572zm8.547.175c-.184 0-1.06-.01-1.794-.385a.41.41 0 0 1-.244-.372v-.334c0-.265.194-.215.276-.184.312.128.515.222.9.3 1.146.234 1.65-.072 1.771-.14a.717.717 0 0 0 .166-1.091c-.328-.275-.484-.285-1.66-.657-.143-.04-1.365-.425-1.368-1.637-.019-.882.781-1.757 2.172-1.75.397 0 1.45.128 1.737.487a.37.37 0 0 1 .06.219v.316q0 .207-.153.209c-.241-.028-.67-.35-1.538-.338-.216-.012-1.247.029-1.2.782-.012.594.831.815.928.84 1.14.344 1.519.4 1.972.925.535.694.247 1.51.134 1.732-.596 1.172-2.137 1.075-2.165 1.075zm1.256 3.278c-2.187 1.616-5.365 2.475-8.078 2.475a14.67 14.67 0 0 1-9.916-3.772c-.203-.184-.025-.437.225-.297a19.9 19.9 0 0 0 9.904 2.628 19.7 19.7 0 0 0 7.55-1.547c.369-.156.681.244.315.513m.913-1.04c-.281-.36-1.853-.17-2.556-.085-.213.025-.247-.16-.057-.297 1.253-.881 3.31-.628 3.544-.331.235.297-.066 2.356-1.237 3.34-.182.154-.354.172-.272-.128.262-.665.856-2.14.575-2.5z"/></svg>
